X: 149
T: The rakes of Clonmel
C: anon.
O: Ireland
B: Francis O'Neill: "The Dance Music of Ireland" (1907) no. 149
R: Double jig
Z: Transcribed by Frank Nordberg - http://www.musicaviva.com
F: http://www.musicaviva.com/abc/tunes/ireland/oneill-1001/oneill-1001-014
9.abc
M: 6/8
L: 1/8
K: Am
(A/B/)|cBA GED|EAA A2B|cBA edc|BGG G2(e/^f/)|g^fg efg|dBG Bcd|ecA GED|EAA
 A2::a|aea aed|
cAA A2 (e/^f/)|gea gdc|BGG G2 [B^f]|[1 gea g^fe|dBG Bcd|ecA GED|EAA A2:|[
2 cBc d^cd|edc Bcd|ecA GED|EAA A2||
|:B|Aaa a^ga|bge e2^f|g^fg bge|dBG G2B|cBc d^cd|efe Bcd|ecA GED|EAA A2:|
W:
W:
W: From Musica Viva - http://www.musicaviva.com
W: the Internet center for free sheet music downloads.


